X: 27236
T: Miss Sarah Drummond Of Perth
R: strathspey
M: 4/4
K: Amixolydian
A2 eA (3Bcd ef|g2 dg Bg dB|A2 eA (3Bcd ef|1 (3gfe (3dcB (3cde (3dcB|2 gfgB B2 A2||
a2 ea (3Bcd ef|g2 dg Bg dg|1 a2 ea (3Bcd ef|gfgB B2 A2|2 bgaf gfed (3gfe (3dcB (3cde (3dcB||

